X: 1
T: Drobe
M: 6/8
L: 1/8
R: jig
K: Cmaj
|: CDE CDE | FED E2D | CDE CDE |1 FED C2D :|2 GAB c3 ||
|: G3 FGA | GFE FED | EDC G3 | FGA GFE |1 FED C2F :|2 FED [E3C3] |
